X: 1
T:SEAN TRUIBHAIS
M:C
L:1/8
Q:80
C:[Whistle o'er the lave o' it]
S:Strathspey
K:HP
|: a|
A2{GdGe}A3/2B/2{gcd}c{e}B{gcd}c2|
{g}ef/2g/2{ag}a3/2c/2{gBd}B{e}A{gAd}A{e}G|
{g}A2{GdGe}A3/2B/2{gcd}c{e}B{gcd}ca|  !
{AGAG}A3/2B/2{gcd}c{e}A{gBd}B2{G}A:| |:
{g}ef/2g/2{ag}ag{afg}fe{gde}dc|
{g}ef/2g/2{ag}a3/2c/2{gBd}B{e}A{gAd}A{e}G|  !
{g}ef/2g/2{ag}ag{afg}fe{g}f/2g/2a|
{AGAG}A3/2B/2{gcd}c{e}A{gBd}B2{G}A:|
